X: 107
T: Money Musk
O: Scottish
M: C|
Z: Mary Lou Knack?  Alternate "B' part added by John Chambers
R: reel (originally strathspey)
K: A
   f | "A"eA cA eA "D"df | "A"eA cA "E7"Bc df | "A"eA cA cd ea | "D"fd "E7"Be "A"cA A :|
|: e | "A"ae fa ea ca | ae "E"db "A"ca "E"Bg | "A"ae fa ea ca | "D"fd "E7"Be "A"cA A :|
|: E | "A"AB cA "D"d2 d2 | "A"AB cA "E7"B2 cB | "A"AB cd ec ea | "E7"ge fg "A"a2 AB |
     | "A"cB cA "D"d2 ed | "A"cB ((3cBA) "E7"B2 cB | "A"AB cd ec ea | "E7"ge fg "A"a3 :|
P: Alternate 'B' Part
[| "A"ag af ea ce | "Bm"dB cA "E7"BA FA | "A"ag af ea c'a | "E7"ba bc' "A"a2 ab |
|  "A"c'a fa ea ce | "Bm"dB cA "E7"BA FA | "A"EA Ac "D"BA af | "E7"ec Bc "A"A3 |]


